src/pos-icons/car-door-lock.svg

<svg height="24" viewBox="0 0 24 24" width="24" xmlns="http://www.w3.org/2000/svg"><path d="m21 3h-10l-8 8v1h1.5c3 0 5.5 2.91 5.5 6.5v2.5h12v-17a1 1 0 0 0 -1-1m-2 13h-3v-2h3m1-3h-14.17l6-6h8.17m-13 12v-.5a2.5 2.5 0 0 0 -5 0v.5a1 1 0 0 0 -1 1v4a1 1 0 0 0 1 1h5a1 1 0 0 0 1-1v-4a1 1 0 0 0 -1-1m-.8 0h-3.4v-.5a1.7 1.7 0 0 1 3.4 0z"/></svg>

<?xml version="1.0" encoding="UTF-8"?><!DOCTYPE svg PUBLIC "-//W3C//DTD SVG 1.1//EN" "http://www.w3.org/Graphics/SVG/1.1/DTD/svg11.dtd"><svg xmlns="http://www.w3.org/2000/svg" xmlns:xlink="http://www.w3.org/1999/xlink" version="1.1" id="mdi-car-door-lock" width="24" height="24" viewBox="0 0 24 24"><path d="M21 3H11L3 11V12H4.5C7.5 12 10 14.91 10 18.5V21H22V4A1 1 0 0 0 21 3M19 16H16V14H19M20 11H5.83L11.83 5H20M7 17V16.5A2.5 2.5 0 0 0 2 16.5V17A1 1 0 0 0 1 18V22A1 1 0 0 0 2 23H7A1 1 0 0 0 8 22V18A1 1 0 0 0 7 17M6.2 17H2.8V16.5A1.7 1.7 0 0 1 6.2 16.5Z" /></svg>
